src/icons/access.svg

<svg width="16" height="16" viewBox="0 0 16 16" xmlns="http://www.w3.org/2000/svg">
<path d="M9.2 2.69751C8.08134 2.69693 6.99122 3.05049 6.08584 3.70751C5.18046 4.36454 4.50631 5.29131 4.16 6.35501L4.125 6.46501H5.1L5.1225 6.41251C5.48287 5.49804 6.1407 4.73156 6.98992 4.23663C7.83914 3.74171 8.83029 3.54717 9.80359 3.68439C10.7769 3.8216 11.6756 4.28257 12.3549 4.99298C13.0342 5.7034 13.4545 6.62187 13.548 7.60033C13.6415 8.57879 13.4028 9.56024 12.8704 10.3865C12.3379 11.2127 11.5428 11.8355 10.6131 12.1546C9.68339 12.4737 8.67334 12.4704 7.74575 12.1453C6.81815 11.8202 6.02706 11.1922 5.5 10.3625C5.475 10.325 5.4525 10.2875 5.43 10.2475L5.38 10.16H4.3575L4.4175 10.2825C4.50994 10.4813 4.61603 10.6734 4.735 10.8575C5.23112 11.633 5.9206 12.266 6.7356 12.6942C7.5506 13.1223 8.46304 13.3309 9.38312 13.2994C10.3032 13.2679 11.1992 12.9974 11.983 12.5145C12.7668 12.0316 13.4114 11.3529 13.8533 10.5453C14.2953 9.73769 14.5193 8.82892 14.5034 7.90844C14.4875 6.98795 14.2322 6.08746 13.7627 5.29558C13.2931 4.5037 12.6255 3.84772 11.8255 3.39217C11.0255 2.93663 10.1206 2.69722 9.2 2.69751Z"/>
<path d="M9.4475 7.27248L7.59 5.41498L6.9725 6.03248L8.0525 7.11498H0L0.52 7.98748H9.15L9.4475 7.27248Z"/>
<path d="M9.43497 11.2125L8.81747 10.595L9.89747 9.51251H1.42497L0.907471 8.63751H10.995L11.2925 9.35501L9.43497 11.2125Z"/>
</svg>

<svg xmlns="http://www.w3.org/2000/svg" width="16" height="16" viewBox="0 0 16 16"><path d="M9.2 2.698a5.3 5.3 0 0 0-5.04 3.657l-.035.11H5.1l.022-.052a4.375 4.375 0 1 1 .308 3.835l-.05-.088H4.358l.06.123q.138.297.317.575A5.303 5.303 0 1 0 9.2 2.698"/><path d="M9.448 7.272 7.59 5.415l-.617.617 1.08 1.083H0l.52.872h8.63zm-.013 3.941-.618-.618 1.08-1.082H1.425l-.518-.875h10.088l.298.717z"/></svg>
